!!!!SEGMENT: pl-sa--l-1636--057_anonim--keyboard-piece.krn
!!!cenid: 17xx:764
!!!COM: Anonim
!!!COM-rismid: pe30004985
!!!CDT:
!!!CNT:
!!!OTL: [Keyboard piece]
!!!PDT:
!!!AGN: Secular
!!!SMS-siglum: PL-SA
!!!SMS-shelfmark: L 1636
!!!SMS-shelfwork: 057 W
!!!SMS-variant:
!!!SMS-altvar:
!!!NIFC-rismid: 1001076836
!!!URL-scan: http://repozytorium.nifc.pl/skany/pl-sa-nut--l1636
!!!ONB-nifc: 15v, skan 0019, s. 1-2
**kern	**kern
*part2	*part1
*staff2	*staff1
*clefF4	*clefG2
*k[]	*k[]
*D:	*D:
*M2/2	*M2/2
*met(c|)	*met(c|)
=1	=1
!	!LO:SIC:o:S:=:v:uszkodzony papier
!LO:SIC:o:s:=:v:all\right	!LO:SIC:o:s:=:v:all\right
1D/ 1AA/ 1DD/	1dd/ 1a/ 1f#Xyy/
=2-	=2-
*	*2\right
*	*^
1A\ 1F#X\ 1D\	2dd/ 2a/ 2f#X/	2ryy
.	2dd/ 2a/	2f#\
=3	=3	=3
*2\right	*	*
*^	*	*
2G#X/	2E\	2ee/	2b\
2A/	2C#X\	2ee/ 2cc#X/	2a\
=4	=4	=4	=4
!LO:SIC:o:s:=:v:2F#	!	!	!
2A/ 2F/	2D\	2ff#X/	8r
.	.	.	8a\
.	.	.	4dd\
2A/	2C#X\	2ee/	4dd\
.	.	.	4cc#X\
*	*	*v	*v
=5	=5	=5
4A/	2BB\	8.dd\L
.	.	16cc#X\K
4G#X/	.	8dd\
.	.	8ee\J
2A/	2AA\	2cc#X\
=6	=6	=6
2A/	2AA\	8r
.	.	16ee\LL
.	.	16dd\JJ
.	.	8cc#X\L
.	.	16cc#\L
.	.	16b\JJ
2A/	4C#X\	8a/L
.	.	16a/L
.	.	16g/JJ
.	4D\	8f#X/L
.	.	16f#/L
.	.	16e/JJ
!!LO:LB:g=original
=7	=7	=7
!LO:SIC:o:s:=:v:4F#	!	!LO:TX:a:t=P:problem:mixed beam
4A/	4F\	8d/L
.	.	16dd\L
.	.	16cc\JJ
4G/	4GG\	8b/L
.	.	16b/L
.	.	16a/JJ
2G/	4BB\	8g/L
.	.	16g/L
.	.	16f/JJ
.	4Cn\	8e/L
.	.	16e/L
.	.	16d/JJ
=8	=8	=8
!	!	!LO:TX:a:t=P:problem:mixed beam
4G/	4E\	8c/L
.	.	16cc\L
.	.	16b\JJ
!	!	!LO:TX:a:t=P:problem:mixed beam
8A/L	8F\L	8a/L
8A/J	8F#X\J	16dd\L
.	.	16cc\JJ
!	!	!LO:TX:a:t=P:problem:mixed beam
4B/	8G\L	8b/L
.	8G#X\J	16ee\L
.	.	16dd\JJ
8e/L	4A\	8cc#X\L
16f/L	.	16dd\L
16g/JJ	.	16ee\JJ
=9	=9	=9
4.f#X/	2A\	4.ddM\
!	!	!LO:SIC:o:s:=:v:8cc#
8e/	.	8cc\
!LO:SIC:o:s:=:v:2F#	!	!LO:TX:a:t=P:problem:mixed beam
8f#/L	2F\	8dd\L
!LO:SIC:o:s:=:v:8c#	!	!
8c/J	.	8a/J
8f#/L	.	8dd\L
8e/J	.	8cc#X\J
=10	=10	=10
!!linebreak:original
8d/L	2G\	8.b/L
!LO:SIC:o:s:=:v:8c#	!	!
8c/J	.	.
.	.	16a/K
8B/L	.	8.g/
!LO:SIC:o:s:=:v:16c#	!	!
16c/L	.	.
16d/JJ	.	16f#X/Jk
4d/	2A\	8e/L
.	.	8f#/J
4c#X/	.	8e/L
.	.	8g/J
*v	*v	*
=11	=11
!	!LO:SIC:o:s:=:v:1f#
1d/ 1D/ 1DD/	1f/ 1d/ 1A/
==	==
*-	*-
!!!system-decoration: s1,s2
!!!EED: Leszek Kubiak
!!!EST: 2020-12-08
!!!ENC:Andrzej Borzym
!!!END:2020-06-12
